X:1
T:Strane guise d'amar
T:Claudio Saracini
T:Aria da cantar octave
T:Source : Le terze Musiche per cantar e sonar---Venetia---A.Vincenti---1620. Editor : André Vierendeels (09/12/15).
T:Notes : Original clefs : C1, F4 Figures above the BC are notated in original print
T:Strane guise d'amar
C:Claudio Saracini
%%score 1 2
L:1/8
Q:1/4=85
M:4/4
K:F
V:1 treble-8 nm="Tenor" snm="T"
V:2 bass nm="BC" snm="BC"
V:1
 z ddd dd d2- | ddAB c4 | A4 z2 cc | ccc c2 A A>G | G4 F4 | z BBB BB B2- | BAAG G2 F2 | %7
w: Stra- ne gui- se d'a- mar|_ d'a- mor fe- de-|le, in- cre-|di- bi- l'ef- fem- pio'ul- ti- mo'ac-|ce- so,|dop- po lun- go'a- do- rar|_ Don- na cru- de- le,|
w: E co- m'a- gnel- la'il tar-|* te'o pec- chia'il me-|le, son o-|stre- tio'a por- tar non a me|stes- so,|an- zi qual fa- ce'in lo-|* ch'i'o- scu- ri'e bu- i,|
 z DDE FF F2- | FFGF E4 | D8 |] %10
w: al fin d'a- man- te suo|_ son fat- tt ruf-|fo.|
w: strug- gio me stes- so per|_ far lu- ce'al- tru-|i.|
V:2
"^-natural" D,8 |"^-natural" D,4 A,,4 |"^-natural" A,,8 |"^-natural""^-natural" A,,4 A,,3 C,- | %4
 C,4 F,,4 |"^-natural" G,,8 | G,,6 D,2 |"^-natural" D,8- | D,4 A,,4 | D,8 |] %10

